X:1
T:Musical Offering Canon a 2 Quaerendo invenietis (A = 415 Hz)
T:BWV 1079
T:J. S. Bach
%%score { 1 | 2 }
L:1/8
M:4/4
K:D
V:1 treble nm="Harp"
V:2 bass 
V:1
 z4 z2 B,C | D2 ^D2 E2 =F2 | F4 G4 | ^A,4 z2 F2 | =F2 E4 ^D2 | D2 C4 B,2 | ^A,2 F,2 B,2 E2 | %7
 D4 D/4C/4D/4C/4D/4C/4D/4C/4 B,C | B,BAG FEDF | EFED CDEC | DB,^G,B, =F,2 ^F,G, | ^A,B,CD E2 DC | %12
 DCB,D C2 B,^A, | B,2 C2 F,4 | =F,4 z D,F,^F, | z ^G,^A,B, z A,B,C | D2 ^D2 E2 =F2 | F4 G4 | %18
 ^A,4 z2 F2 | =F2 E4 ^D2 | D2 C4 B,2 | ^A,2 F,2 B,2 E2 | D4 D/4C/4D/4C/4D/4C/4D/4C/4 B,C | %23
 B,BAG FEDF | EFED CDEC | DB,^G,B, =F,2 ^F,G, | ^A,B,CD E2 DC | DCB,D C2 B,^A, | B,2 C2 F,4 | %29
 =F,4 z D,F,^F, | z ^G,^A,B, z A,B,C | D2 ^D2 E2 =F2 | F4 G4 | ^A,4 z2 F2 | =F2 E4 ^D2 | %35
 D2 C4 B,2 | ^A,2 F,2 B,2 E2 | D4 D/4C/4D/4C/4D/4C/4D/4C/4 B,C | B,BAG FEDF | EFED CDEC | D4 z4 | %41
 z8 | z8 | z4 z2 B,C | D2 ^D2 E2 =F2 | F4 G4 | ^A,4 z2 F2 | =F2 E4 ^D2 | D2 C4 B,2 | %49
 ^A,2 F,2 B,2 E2 | D4 D/4C/4D/4C/4D/4C/4D/4C/4 B,C | B,BAG FEDF | EFED CDEC | DB,^G,B, =F,2 ^F,G, | %54
 ^A,B,CD E2 DC | DCB,D C2 B,^A, | B,2 C2 F,4 | =F,4 z D,F,^F, | z ^G,^A,B, z A,B,C | %59
 D2 ^D2 E2 =F2 | F4 G4 | ^A,4 z2 F2 | =F2 E4 ^D2 | D2 C4 B,2 | ^A,2 F,2 B,2 E2 | %65
 D4 D/4C/4D/4C/4D/4C/4D/4C/4 B,C | B,BAG FEDF | EFED CDEC | DB,^G,B, ^E,2 F,G, | ^A,B,CD E2 DC | %70
 DCB,D C2 B,^A, | B,2 C2 F,4 | =F,4 z D,F,^F, | z ^G,^A,B, z A,B,C | D2 ^D2 E2 =F2 | F4 G4 | %76
 ^A,4 z2 F2 | =F2 E4 ^D2 | D2 C4 B,2 | ^A,2 F,2 B,2 E2 | D4 D/4C/4D/4C/4D/4C/4D/4C/4 B,C | %81
 B,4 z4 |] %82
V:2
 z8 | z8 | z8 | z2 C,B,, ^A,,2 =A,,2 | ^G,,2 =G,,2 F,,4 | =F,,4 D,4 | z2 F,,2 G,,2 ^G,,2- | %7
 G,,2 A,,2 ^A,,2 B,,2- | B,,2 C,2 D,2 F,2 | C,2 ^G,,2 ^A,,4 | %10
 C,/4B,,/4C,/4B,,/4C,/4B,,/4C,/4B,,/4 C,B,, C,C,,^D,,=F,, | F,,^G,,^A,,F,, G,,F,,G,,A,, | %12
 B,,^A,,^G,,B,, A,,C,E,C, | G,2 F,E, D,C,B,,^A,, | ^G,,2 ^A,,B,, A,,B,,C,A,, | B,,2 C,D, C,2 B,,2 | %16
 F,4 G,4 | z ^A,G,F, z E,D,C, | z D,C,B,, ^A,,2 =A,,2 | ^G,,2 =G,,2 F,,4 | =F,,4 D,4 | %21
 z2 F,,2 G,,2 ^G,,2- | G,,2 A,,2 ^A,,2 B,,2- | B,,2 C,2 D,2 F,2 | C,2 ^G,,2 ^A,,4 | %25
 C,/4B,,/4C,/4B,,/4C,/4B,,/4C,/4B,,/4 C,B,, C,C,,^D,,=F,, | F,,^G,,^A,,F,, G,,F,,G,,A,, | %27
 B,,^A,,^G,,B,, A,,C,E,C, | G,2 F,E, D,C,B,,^A,, | ^G,,2 ^A,,B,, A,,B,,C,A,, | B,,2 C,D, C,2 B,,2 | %31
 F,4 G,4 | z ^A,G,F, z E,D,C, | z D,C,B,, ^A,,2 =A,,2 | ^G,,2 =G,,2 F,,4 | =F,,4 D,4 | %36
 z2 F,,2 G,,2 ^G,,2- | G,,2 A,,2 ^A,,2 B,,2- | B,,2 C,2 D,2 F,2 | C,2 ^G,,2 ^A,,4 | B,,4 z4 | %41
 z2 C,B,, ^A,,2 =A,,2 | ^G,,2 =G,,2 F,,4 | =F,,4 D,4 | z2 F,,2 G,,2 ^G,,2- | %45
 G,,2 A,,2 ^A,,2 B,,2- | B,,2 C,2 D,2 F,2 | C,2 ^G,,2 ^A,,4 | %48
 C,/4B,,/4C,/4B,,/4C,/4B,,/4C,/4B,,/4 C,B,, C,C,,^D,,=F,, | F,,^G,,^A,,F,, G,,F,,G,,A,, | %50
 B,,^A,,^G,,B,, A,,C,E,C, | G,2 F,E, D,C,B,,^A,, | ^G,,2 ^A,,B,, A,,B,,C,A,, | B,,2 C,D, C,2 B,,2 | %54
 F,4 G,4 | z ^A,G,F, z E,D,C, | z D,C,B,, ^A,,2 =A,,2 | ^G,,2 =G,,2 F,,4 | =F,,4 D,4 | %59
 z2 F,,2 G,,2 ^G,,2- | G,,2 A,,2 ^A,,2 B,,2- | B,,2 C,2 D,2 F,2 | C,2 ^G,,2 ^A,,4 | %63
 C,/4B,,/4C,/4B,,/4C,/4B,,/4C,/4B,,/4 C,B,, C,C,,^D,,=F,, | F,,^G,,^A,,F,, G,,F,,G,,A,, | %65
 B,,^A,,^G,,B,, A,,C,E,C, | G,2 F,E, D,C,B,,^A,, | ^G,,2 ^A,,B,, A,,B,,C,A,, | B,,2 C,D, C,2 B,,2 | %69
 F,4 G,4 | z ^A,G,F, z E,D,C, | z D,C,B,, ^A,,2 =A,,2 | ^G,,2 =G,,2 F,,4 | =F,,4 D,4 | %74
 z2 F,,2 G,,2 ^G,,2- | G,,2 A,,2 ^A,,2 B,,2- | B,,2 C,2 D,2 F,2 | C,2 ^G,,2 ^A,,4 | %78
 C,/4B,,/4C,/4B,,/4C,/4B,,/4C,/4B,,/4 C,B,, C,C,,^D,,=F,, | F,,^G,,^A,,F,, G,,F,,G,,A,, | %80
 B,,^A,,^G,,B,, A,,C, F,2 | B,,4 z4 |] %82

